component-icons/svg/timeline.svg

<?xml version="1.0" encoding="utf-8"?>
<!-- Generator: Adobe Illustrator 24.2.3, SVG Export Plug-In . SVG Version: 6.00 Build 0)  -->
<svg version="1.1" id="Layer_1" xmlns="http://www.w3.org/2000/svg" xmlns:xlink="http://www.w3.org/1999/xlink" x="0px" y="0px"
	 width="24px" height="24px" viewBox="0 0 24 24" enable-background="new 0 0 24 24" xml:space="preserve">
<path d="M24,3h-8v2h6L24,3z M2,9h6V7H0L2,9z M2,17h6v-2H0L2,17z M16,13h6l2-2h-8V13z M10,24h4V0h-4V24z M16,21h6l2-2h-8V21z"/>
</svg>

<svg id="Layer_1" data-name="Layer 1" xmlns="http://www.w3.org/2000/svg" viewBox="0 0 24 24">
  <defs>
    <style>
      .cls-1 {
        fill: gray;
      }
    </style>
  </defs>
  <title>timeline</title>
  <path class="cls-1" d="M24,3H16V5h6ZM2,9H8V7H0Zm0,8H8V15H0Zm14-4h6l2-2H16ZM10,24h4V0H10Zm6-3h6l2-2H16Z"/>
</svg>
